X: 2168
T: Glädjens blomster (visa)
S: efter Johan August Ericsson
B: [[http://www.smus.se/earkiv/fmk/browselarge.php?lang=sw&katalogid=M+19&bildnr=00018|SMUS - katalog M19 bild 18]] (nr 85)
B: [[Notböcker/Johan August Ericssons notbok]]
B: Jämför [[http://www.smus.se/earkiv/fmk/browselarge.php?lang=sw&katalogid=M+187a&bildnr=00038|SMUS - katalog M187a bild 38]] nr 144.
O: Södermanland
R: Visa
Z: Nils L, 2011-11-18
M:3/4
L:1/8
K:Gm
G>A B2 G>B | A>^F D2 F>G | A>B G4 ::
B>c d2 B>d | dd A4 | d2 c>B "punkterad?"A>G | G2 ^F2 z2 | 
GA BA cB | AG BA G^F | ^F2 G2 z2 :|(:musicend:)

En annan uppteckning:

(:music:)X:none
T:Glädjens blomster i jordens mull (visa)
B:[[http://http://www.smus.se/earkiv/fmk/browselarge.php?lang=sw&katalogid=M+164&bildnr=00010|SMUS - katalog M164 bild 10]] 
R:Polska
Z:Nils L, 2011-11-18
M:3/4
L:1/8
K:Dm
%%text Ej för långsam
(d>e f2) (d>f) | (e>^c A2) (c>d) | (e>f) d4 :| (f>g) a2 (f>a) | aa e4 | (a2 gfed) | (d2 ^c2) z2 ||
|: (defegf) | (edfed^c) | (^c2 d2) z2 :|
w: p.-pp.
(:musicend:)
(:music:)
